packages/dnb-eufemia/assets/icons/credit_note.svg

<svg width="16" height="16" viewBox="0 0 16 16" fill="none" xmlns="http://www.w3.org/2000/svg">
<path d="M2 10.8077L1 9.65385M1 9.65385L2 8.5M1 9.65385H4.33333C5.25381 9.65385 6 8.79286 6 7.73077C6 6.66868 5.25381 5.80769 4.33333 5.80769H3M3.8562 2.99988V2.6499C3.8562 2.09762 4.30392 1.6499 4.8562 1.6499H10.0316C10.3257 1.6499 10.605 1.77941 10.795 2.00396L13.434 5.12284C13.5868 5.3034 13.6706 5.53227 13.6706 5.76879V13.3509C13.6706 13.9032 13.2229 14.3509 12.6706 14.3509H4.8562C4.30392 14.3509 3.8562 13.9032 3.8562 13.3509V12.9999" stroke="black" stroke-width="1.5" stroke-linecap="round" stroke-linejoin="round"/>
</svg>

<svg width="16" height="16" viewBox="0 0 16 16" fill="none" xmlns="http://www.w3.org/2000/svg"><path d="M2 10.808 1 9.654m0 0L2 8.5M1 9.654h3.333C5.253 9.654 6 8.793 6 7.73s-.746-1.923-1.667-1.923H3M3.856 3v-.35a1 1 0 0 1 1-1h5.176a1 1 0 0 1 .763.354l2.639 3.119a1 1 0 0 1 .237.646v7.582a1 1 0 0 1-1 1H4.856a1 1 0 0 1-1-1V13" stroke="#000" stroke-width="1.5" stroke-linecap="round" stroke-linejoin="round"/></svg>
